;FLAVOR:Marlin
;TIME:223
;Filament used: 0.0764738m
;Layer height: 0.2
;MINX:95.793
;MINY:95.801
;MINZ:0.2
;MAXX:124.209
;MAXY:124.199
;MAXZ:12
;Generated with Creality Slicer 4.8.2-191
M140 S60
M105
M190 S60
M104 S200
M105
M109 S200
M82 ;absolute extrusion mode

G28 ;Home

G92 E0 ;Reset Extruder
G1 Z2.0 F3000 ;Move Z Axis up
G1 X10.1 Y20 Z0.28 F5000.0 ;Move to start position
G1 X10.1 Y200.0 Z0.28 F1500.0 E15 ;Draw the first line
G1 X10.4 Y200.0 Z0.28 F5000.0 ;Move to side a little
G1 X10.4 Y20 Z0.28 F1500.0 E30 ;Draw the second line
G92 E0 ;Reset Extruder
G1 Z2.0 F3000 ;Move Z Axis up

G92 E0
G92 E0
G1 F2400 E-0.8
;LAYER_COUNT:60
;LAYER:0
M107
M204 S2000
G0 F7500 X100.151 Y99.752 Z0.2
M204 S500
;TYPE:SKIRT
G1 F2400 E0
G1 F1500 X100.234 Y99.673 E0.00381
G1 X100.686 Y99.266 E0.02404
G1 X100.915 Y99.071 E0.03405
G1 X101.62 Y98.519 E0.06383
G1 X101.695 Y98.465 E0.0669
G1 X102.171 Y98.141 E0.08605
G1 X102.471 Y97.948 E0.09792
G1 X103.275 Y97.477 E0.12891
G1 X103.343 Y97.441 E0.13147
G1 X103.783 Y97.221 E0.14783
G1 X104.066 Y97.087 E0.15824
G1 X104.92 Y96.726 E0.18908
G1 X105.035 Y96.683 E0.19316
G1 X105.455 Y96.535 E0.20798
G1 X105.732 Y96.444 E0.21767
G1 X106.662 Y96.183 E0.2498
G1 X106.769 Y96.158 E0.25345
G1 X107.258 Y96.056 E0.27007
G1 X107.564 Y95.999 E0.28042
G1 X108.548 Y95.861 E0.31347
G1 X108.665 Y95.85 E0.31738
G1 X109.115 Y95.817 E0.33239
G1 X109.418 Y95.801 E0.34248
G1 X110.623 Y95.804 E0.38256
G1 X110.904 Y95.82 E0.39192
G1 X112.137 Y95.96 E0.43319
G1 X112.709 Y96.058 E0.45249
G1 X114.032 Y96.37 E0.4977
G1 X114.128 Y96.399 E0.50104
G1 X114.64 Y96.567 E0.51896
G1 X114.915 Y96.665 E0.52867
G1 X115.768 Y97.01 E0.55927
G1 X115.898 Y97.069 E0.56402
G1 X116.336 Y97.28 E0.58019
G1 X116.578 Y97.403 E0.58922
G1 X117.376 Y97.851 E0.61966
G1 X117.499 Y97.927 E0.62447
G1 X117.916 Y98.198 E0.64101
G1 X118.152 Y98.359 E0.65051
G1 X118.943 Y98.952 E0.68339
G1 X119.039 Y99.031 E0.68753
G1 X119.448 Y99.386 E0.70554
G1 X119.679 Y99.596 E0.71592
G1 X120.248 Y100.151 E0.74236
G1 X120.327 Y100.234 E0.74617
G1 X120.719 Y100.669 E0.76565
G1 X120.908 Y100.89 E0.77532
G1 X121.449 Y101.575 E0.80435
G1 X121.51 Y101.659 E0.8078
G1 X121.816 Y102.104 E0.82577
G1 X121.984 Y102.361 E0.83598
G1 X122.379 Y103.014 E0.86136
G1 X122.436 Y103.116 E0.86525
G1 X122.806 Y103.839 E0.89226
G1 X122.894 Y104.028 E0.8992
G1 X123.232 Y104.837 E0.92836
G1 X123.412 Y105.321 E0.94553
G1 X123.804 Y106.611 E0.99038
G1 X123.833 Y106.733 E0.99455
G1 X123.944 Y107.259 E1.01243
G1 X123.997 Y107.543 E1.02204
G1 X124.111 Y108.297 E1.0474
G1 X124.125 Y108.418 E1.05145
G1 X124.182 Y109.091 E1.07391
G1 X124.199 Y109.407 E1.08444
G1 X124.209 Y110.347 E1.11571
G1 X124.205 Y110.473 E1.1199
G1 X124.177 Y110.991 E1.13715
G1 X124.154 Y111.282 E1.14686
G1 X123.991 Y112.485 E1.18724
G1 X123.936 Y112.772 E1.19696
G1 X123.65 Y113.927 E1.23653
G1 X123.489 Y114.452 E1.2548
G1 X122.992 Y115.765 E1.30149
G1 X122.944 Y115.871 E1.30536
G1 X122.719 Y116.339 E1.32263
G1 X122.58 Y116.611 E1.33279
G1 X122.174 Y117.337 E1.36046
G1 X122.116 Y117.432 E1.36416
G1 X121.818 Y117.893 E1.38242
G1 X121.647 Y118.144 E1.39252
G1 X121.042 Y118.95 E1.42604
G1 X120.962 Y119.047 E1.43022
G1 X120.614 Y119.449 E1.44791
G1 X120.403 Y119.681 E1.45834
G1 X119.849 Y120.248 E1.4847
G1 X119.766 Y120.327 E1.48851
G1 X119.328 Y120.722 E1.50813
G1 X119.108 Y120.91 E1.51776
G1 X118.395 Y121.47 E1.54791
G1 X118.309 Y121.532 E1.55144
G1 X117.897 Y121.815 E1.56806
G1 X117.634 Y121.987 E1.57851
G1 X116.93 Y122.411 E1.60585
G1 X116.834 Y122.464 E1.60949
G1 X116.243 Y122.767 E1.63158
G1 X115.974 Y122.895 E1.64149
G1 X115.177 Y123.237 E1.67034
G1 X115.041 Y123.289 E1.67518
G1 X114.545 Y123.465 E1.69269
G1 X114.268 Y123.556 E1.70238
G1 X113.338 Y123.817 E1.73451
G1 X113.231 Y123.842 E1.73817
G1 X112.742 Y123.944 E1.75478
G1 X112.436 Y124.001 E1.76513
G1 X111.452 Y124.139 E1.79818
G1 X111.335 Y124.15 E1.80209
G1 X110.885 Y124.183 E1.8171
G1 X110.582 Y124.199 E1.82719
G1 X109.377 Y124.196 E1.86727
G1 X109.096 Y124.18 E1.87663
G1 X107.863 Y124.04 E1.9179
G1 X107.291 Y123.942 E1.9372
G1 X105.968 Y123.63 E1.98241
G1 X105.872 Y123.601 E1.98575
G1 X105.374 Y123.438 E2.00318
G1 X105.095 Y123.339 E2.01302
G1 X104.234 Y122.991 E2.04391
G1 X104.106 Y122.933 E2.04859
G1 X103.631 Y122.704 E2.06612
G1 X103.387 Y122.579 E2.07524
G1 X102.593 Y122.13 E2.10558
G1 X102.474 Y122.056 E2.11024
G1 X102.076 Y121.796 E2.12605
G1 X101.839 Y121.634 E2.1356
G1 X101.09 Y121.074 E2.16671
G1 X100.992 Y120.994 E2.17091
G1 X100.533 Y120.598 E2.19108
G1 X100.304 Y120.389 E2.20139
G1 X99.751 Y119.848 E2.22712
G1 X99.672 Y119.765 E2.23093
G1 X99.267 Y119.315 E2.25107
G1 X99.077 Y119.092 E2.26081
G1 X98.544 Y118.415 E2.28947
G1 X98.486 Y118.335 E2.29276
G1 X98.172 Y117.878 E2.3112
G1 X97.995 Y117.606 E2.32199
G1 X97.369 Y116.51 E2.36397
G1 X97.24 Y116.251 E2.3736
G1 X96.77 Y115.166 E2.41292
G1 X96.579 Y114.65 E2.43122
G1 X96.2 Y113.402 E2.4746
G1 X96.175 Y113.298 E2.47816
G1 X96.058 Y112.75 E2.4968
G1 X96 Y112.44 E2.50729
G1 X95.871 Y111.552 E2.53713
G1 X95.86 Y111.446 E2.54068
G1 X95.815 Y110.874 E2.55976
G1 X95.799 Y110.562 E2.57015
G1 X95.793 Y109.586 E2.60261
G1 X95.798 Y109.453 E2.60704
G1 X95.826 Y108.983 E2.6227
G1 X95.85 Y108.685 E2.63264
G1 X96.03 Y107.397 E2.6759
G1 X96.089 Y107.104 E2.68584
G1 X96.355 Y106.054 E2.72187
G1 X96.506 Y105.561 E2.73902
G1 X96.819 Y104.676 E2.77024
G1 X97.126 Y103.982 E2.79548
G1 X97.255 Y103.716 E2.80531
G1 X97.853 Y102.641 E2.84623
G1 X98.16 Y102.155 E2.86534
G1 X98.966 Y101.041 E2.91108
G1 X99.031 Y100.962 E2.91448
G1 X99.386 Y100.552 E2.93252
G1 X99.596 Y100.321 E2.9429
G1 X100.151 Y99.752 E2.96934
M204 S2000
G0 F7500 X100.427 Y100.042
M204 S500
G1 F1500 X100.51 Y99.963 E2.97315
G1 X100.946 Y99.571 E2.99265
G1 X101.175 Y99.376 E3.00265
G1 X101.853 Y98.844 E3.03132
G1 X101.928 Y98.79 E3.03439
G1 X102.387 Y98.477 E3.05287
G1 X102.687 Y98.284 E3.06473
G1 X103.462 Y97.831 E3.09459
G1 X103.53 Y97.795 E3.09715
G1 X103.954 Y97.583 E3.11292
G1 X104.237 Y97.449 E3.12333
G1 X105.061 Y97.1 E3.1531
G1 X105.176 Y97.057 E3.15718
G1 X105.58 Y96.916 E3.17141
G1 X105.857 Y96.825 E3.18111
G1 X106.753 Y96.573 E3.21207
G1 X106.86 Y96.548 E3.21572
G1 X107.331 Y96.449 E3.23173
G1 X107.637 Y96.392 E3.24208
G1 X108.586 Y96.26 E3.27395
G1 X108.703 Y96.249 E3.27786
G1 X109.136 Y96.217 E3.2923
G1 X109.439 Y96.201 E3.30239
G1 X110.601 Y96.203 E3.34104
G1 X110.882 Y96.219 E3.3504
G1 X112.069 Y96.354 E3.39013
G1 X112.641 Y96.452 E3.40944
G1 X113.916 Y96.753 E3.45301
G1 X114.012 Y96.782 E3.45634
G1 X114.505 Y96.944 E3.4736
G1 X114.78 Y97.042 E3.48331
G1 X115.603 Y97.375 E3.51284
G1 X115.733 Y97.434 E3.51759
G1 X116.155 Y97.637 E3.53317
G1 X116.397 Y97.76 E3.54219
G1 X117.166 Y98.192 E3.57153
G1 X117.289 Y98.268 E3.57634
G1 X117.691 Y98.529 E3.59228
G1 X117.927 Y98.69 E3.60178
G1 X118.689 Y99.261 E3.63345
G1 X118.785 Y99.34 E3.63759
G1 X119.179 Y99.682 E3.65494
G1 X119.41 Y99.892 E3.66533
G1 X119.958 Y100.427 E3.6908
G1 X120.037 Y100.51 E3.69461
G1 X120.415 Y100.929 E3.71338
G1 X120.604 Y101.15 E3.72305
G1 X121.125 Y101.81 E3.75102
G1 X121.186 Y101.894 E3.75447
G1 X121.481 Y102.323 E3.77179
G1 X121.649 Y102.58 E3.782
G1 X122.03 Y103.209 E3.80646
G1 X122.087 Y103.311 E3.81034
G1 X122.443 Y104.008 E3.83637
G1 X122.531 Y104.197 E3.84331
G1 X122.857 Y104.976 E3.8714
G1 X123.037 Y105.46 E3.88857
G1 X123.415 Y106.704 E3.93181
G1 X123.444 Y106.826 E3.93599
G1 X123.551 Y107.332 E3.95319
G1 X123.604 Y107.616 E3.9628
G1 X123.714 Y108.343 E3.98725
G1 X123.728 Y108.464 E3.9913
G1 X123.783 Y109.113 E4.01297
G1 X123.8 Y109.429 E4.02349
G1 X123.81 Y110.334 E4.05359
G1 X123.806 Y110.46 E4.05779
G1 X123.778 Y110.959 E4.07441
G1 X123.755 Y111.25 E4.08412
G1 X123.599 Y112.41 E4.12305
G1 X123.544 Y112.697 E4.13277
G1 X123.267 Y113.81 E4.17091
G1 X123.106 Y114.335 E4.18918
G1 X122.628 Y115.6 E4.23416
G1 X122.58 Y115.706 E4.23803
G1 X122.363 Y116.157 E4.25467
G1 X122.224 Y116.429 E4.26483
G1 X121.832 Y117.129 E4.29152
G1 X121.774 Y117.224 E4.29522
G1 X121.487 Y117.668 E4.3128
G1 X121.316 Y117.919 E4.3229
G1 X120.734 Y118.695 E4.35517
G1 X120.654 Y118.792 E4.35935
G1 X120.318 Y119.18 E4.37642
G1 X120.107 Y119.412 E4.38685
G1 X119.573 Y119.958 E4.41225
G1 X119.49 Y120.037 E4.41606
G1 X119.068 Y120.417 E4.43495
G1 X118.848 Y120.605 E4.44458
G1 X118.161 Y121.145 E4.47364
G1 X118.075 Y121.207 E4.47717
G1 X117.678 Y121.48 E4.49319
G1 X117.415 Y121.652 E4.50364
G1 X116.736 Y122.061 E4.53001
G1 X116.64 Y122.114 E4.53365
G1 X116.072 Y122.406 E4.5549
G1 X115.803 Y122.534 E4.5648
G1 X115.034 Y122.863 E4.59262
G1 X114.898 Y122.915 E4.59747
G1 X114.42 Y123.084 E4.61433
G1 X114.143 Y123.175 E4.62403
G1 X113.247 Y123.427 E4.65498
G1 X113.14 Y123.452 E4.65864
G1 X112.669 Y123.551 E4.67465
G1 X112.363 Y123.608 E4.685
G1 X111.414 Y123.74 E4.71687
G1 X111.297 Y123.751 E4.72078
G1 X110.864 Y123.783 E4.73522
G1 X110.561 Y123.799 E4.74531
G1 X109.399 Y123.797 E4.78396
G1 X109.118 Y123.781 E4.79332
G1 X107.931 Y123.646 E4.83305
G1 X107.359 Y123.548 E4.85235
G1 X106.084 Y123.247 E4.89593
G1 X105.988 Y123.218 E4.89926
G1 X105.508 Y123.061 E4.91606
G1 X105.229 Y122.962 E4.92591
G1 X104.399 Y122.627 E4.95568
G1 X104.271 Y122.569 E4.96035
G1 X103.813 Y122.348 E4.97726
G1 X103.569 Y122.223 E4.98638
G1 X102.804 Y121.791 E5.0156
G1 X102.685 Y121.717 E5.02026
G1 X102.301 Y121.466 E5.03552
G1 X102.064 Y121.304 E5.04507
G1 X101.343 Y120.764 E5.07503
G1 X101.245 Y120.684 E5.07924
G1 X100.802 Y120.302 E5.09869
G1 X100.573 Y120.093 E5.10901
G1 X100.041 Y119.572 E5.13377
G1 X99.962 Y119.489 E5.13758
G1 X99.571 Y119.056 E5.15699
G1 X99.381 Y118.833 E5.16673
G1 X98.868 Y118.18 E5.19435
G1 X98.81 Y118.1 E5.19764
G1 X98.507 Y117.659 E5.21543
G1 X98.33 Y117.387 E5.22623
G1 X97.727 Y116.332 E5.26664
G1 X97.598 Y116.073 E5.27627
G1 X97.145 Y115.027 E5.31418
G1 X96.954 Y114.511 E5.33248
G1 X96.589 Y113.309 E5.37426
G1 X96.564 Y113.205 E5.37782
G1 X96.451 Y112.676 E5.39581
G1 X96.393 Y112.366 E5.4063
G1 X96.269 Y111.511 E5.43503
G1 X96.258 Y111.405 E5.43858
G1 X96.215 Y110.854 E5.45696
G1 X96.199 Y110.542 E5.46735
G1 X96.192 Y109.601 E5.49865
G1 X96.197 Y109.468 E5.50308
G1 X96.224 Y109.015 E5.51817
G1 X96.248 Y108.717 E5.52811
G1 X96.423 Y107.476 E5.5698
G1 X96.482 Y107.183 E5.57974
G1 X96.738 Y106.171 E5.61446
G1 X96.889 Y105.678 E5.63161
G1 X97.196 Y104.81 E5.66223
G1 X97.486 Y104.157 E5.686
G1 X97.615 Y103.891 E5.69583
G1 X98.191 Y102.855 E5.73525
G1 X98.498 Y102.369 E5.75437
G1 X99.275 Y101.295 E5.79846
G1 X99.34 Y101.216 E5.80186
G1 X99.682 Y100.821 E5.81924
G1 X99.892 Y100.59 E5.82963
G1 X100.427 Y100.042 E5.8551
M204 S2000
G0 F7500 X100.703 Y100.332
M204 S500
G1 F1500 X100.786 Y100.253 E5.85891
G1 X101.205 Y99.875 E5.87768
G1 X101.434 Y99.68 E5.88768
G1 X102.087 Y99.168 E5.91528
G1 X102.162 Y99.114 E5.91835
G1 X102.603 Y98.814 E5.93609
G1 X102.903 Y98.621 E5.94796
G1 X103.65 Y98.184 E5.97674
G1 X103.718 Y98.148 E5.9793
G1 X104.125 Y97.944 E5.99445
G1 X104.408 Y97.81 E6.00486
G1 X105.201 Y97.475 E6.03349
G1 X105.316 Y97.432 E6.03758
G1 X105.704 Y97.296 E6.05125
G1 X105.981 Y97.205 E6.06095
G1 X106.844 Y96.963 E6.09076
G1 X106.951 Y96.938 E6.09441
G1 X107.404 Y96.842 E6.10981
G1 X107.71 Y96.785 E6.12017
G1 X108.623 Y96.658 E6.15083
G1 X108.74 Y96.647 E6.15473
G1 X109.157 Y96.616 E6.16864
G1 X109.46 Y96.6 E6.17873
G1 X110.578 Y96.602 E6.21592
G1 X110.859 Y96.618 E6.22528
G1 X112.001 Y96.748 E6.26351
G1 X112.573 Y96.846 E6.28281
G1 X113.801 Y97.136 E6.32478
G1 X113.897 Y97.165 E6.32811
G1 X114.371 Y97.321 E6.34471
G1 X114.646 Y97.419 E6.35442
G1 X115.437 Y97.739 E6.3828
G1 X115.567 Y97.798 E6.38755
G1 X115.974 Y97.993 E6.40256
G1 X116.216 Y98.116 E6.41159
G1 X116.956 Y98.532 E6.43982
G1 X117.079 Y98.608 E6.44463
G1 X117.465 Y98.859 E6.45995
G1 X117.701 Y99.02 E6.46945
G1 X118.434 Y99.57 E6.49993
G1 X118.53 Y99.649 E6.50406
G1 X118.91 Y99.978 E6.52078
G1 X119.141 Y100.188 E6.53116
G1 X119.668 Y100.703 E6.55567
G1 X119.747 Y100.786 E6.55948
G1 X120.111 Y101.189 E6.57754
G1 X120.3 Y101.41 E6.58722
G1 X120.801 Y102.045 E6.61412
G1 X120.862 Y102.129 E6.61757
G1 X121.147 Y102.542 E6.63426
G1 X121.315 Y102.799 E6.64447
G1 X121.681 Y103.404 E6.66799
G1 X121.738 Y103.506 E6.67188
G1 X122.081 Y104.177 E6.69694
G1 X122.169 Y104.366 E6.70388
G1 X122.482 Y105.116 E6.73091
G1 X122.662 Y105.6 E6.74808
G1 X123.025 Y106.796 E6.78965
G1 X123.054 Y106.918 E6.79382
G1 X123.158 Y107.406 E6.81042
G1 X123.211 Y107.69 E6.82003
G1 X123.316 Y108.389 E6.84354
G1 X123.33 Y108.51 E6.84759
G1 X123.383 Y109.134 E6.86842
G1 X123.4 Y109.45 E6.87894
G1 X123.41 Y110.322 E6.90795
G1 X123.406 Y110.448 E6.91214
G1 X123.379 Y110.928 E6.92813
G1 X123.356 Y111.219 E6.93784
G1 X123.206 Y112.335 E6.97529
G1 X123.151 Y112.622 E6.98501
G1 X122.885 Y113.693 E7.02171
G1 X122.724 Y114.218 E7.03998
G1 X122.264 Y115.435 E7.08325
G1 X122.216 Y115.541 E7.08712
G1 X122.007 Y115.975 E7.10314
G1 X121.868 Y116.247 E7.1133
G1 X121.491 Y116.92 E7.13896
G1 X121.433 Y117.015 E7.14266
G1 X121.157 Y117.443 E7.1596
G1 X120.986 Y117.694 E7.1697
G1 X120.425 Y118.441 E7.20077
G1 X120.345 Y118.538 E7.20496
G1 X120.022 Y118.911 E7.22137
G1 X119.811 Y119.143 E7.2318
G1 X119.297 Y119.668 E7.25623
G1 X119.214 Y119.747 E7.26005
G1 X118.808 Y120.113 E7.27823
G1 X118.588 Y120.301 E7.28785
G1 X117.927 Y120.821 E7.31582
G1 X117.841 Y120.883 E7.31935
G1 X117.459 Y121.146 E7.33477
G1 X117.196 Y121.318 E7.34523
G1 X116.543 Y121.711 E7.37058
G1 X116.447 Y121.764 E7.37422
G1 X115.9 Y122.044 E7.39466
G1 X115.631 Y122.172 E7.40457
G1 X114.891 Y122.489 E7.43135
G1 X114.755 Y122.541 E7.43619
G1 X114.296 Y122.704 E7.45239
G1 X114.019 Y122.795 E7.46209
G1 X113.156 Y123.037 E7.4919
G1 X113.049 Y123.062 E7.49555
G1 X112.596 Y123.158 E7.51095
G1 X112.29 Y123.215 E7.52131
G1 X111.377 Y123.342 E7.55196
G1 X111.26 Y123.353 E7.55587
G1 X110.843 Y123.384 E7.56978
G1 X110.54 Y123.4 E7.57987
G1 X109.422 Y123.398 E7.61706
G1 X109.141 Y123.382 E7.62642
G1 X107.999 Y123.252 E7.66465
G1 X107.427 Y123.154 E7.68395
G1 X106.199 Y122.864 E7.72592
G1 X106.103 Y122.835 E7.72925
G1 X105.642 Y122.684 E7.74539
G1 X105.363 Y122.585 E7.75523
G1 X104.564 Y122.263 E7.78388
G1 X104.436 Y122.205 E7.78856
G1 X103.995 Y121.992 E7.80485
G1 X103.751 Y121.867 E7.81397
G1 X103.016 Y121.451 E7.84206
G1 X102.897 Y121.377 E7.84672
G1 X102.527 Y121.136 E7.8614
G1 X102.29 Y120.974 E7.87095
G1 X101.596 Y120.455 E7.89977
G1 X101.498 Y120.375 E7.90398
G1 X101.072 Y120.007 E7.92271
G1 X100.843 Y119.798 E7.93302
G1 X100.331 Y119.296 E7.95687
G1 X100.252 Y119.213 E7.96068
G1 X99.876 Y118.796 E7.97935
G1 X99.686 Y118.573 E7.9891
G1 X99.192 Y117.945 E8.01567
G1 X99.134 Y117.865 E8.01896
G1 X98.843 Y117.441 E8.03606
G1 X98.666 Y117.169 E8.04686
G1 X98.085 Y116.153 E8.08578
G1 X97.956 Y115.894 E8.09541
G1 X97.52 Y114.888 E8.13187
G1 X97.329 Y114.372 E8.15017
G1 X96.978 Y113.215 E8.19039
G1 X96.953 Y113.111 E8.19395
G1 X96.844 Y112.603 E8.21123
G1 X96.786 Y112.293 E8.22172
G1 X96.666 Y111.47 E8.24938
G1 X96.655 Y111.364 E8.25292
G1 X96.614 Y110.833 E8.27064
G1 X96.598 Y110.521 E8.28103
G1 X96.592 Y109.616 E8.31113
G1 X96.597 Y109.483 E8.31556
G1 X96.623 Y109.047 E8.33008
G1 X96.647 Y108.749 E8.34003
G1 X96.815 Y107.554 E8.38016
G1 X96.874 Y107.261 E8.3901
G1 X97.12 Y106.288 E8.42348
G1 X97.271 Y105.795 E8.44063
G1 X97.574 Y104.944 E8.47068
G1 X97.846 Y104.331 E8.49298
G1 X97.975 Y104.065 E8.50282
G1 X98.529 Y103.069 E8.54072
G1 X98.836 Y102.583 E8.55984
G1 X99.583 Y101.549 E8.60227
G1 X99.648 Y101.47 E8.60567
G1 X99.978 Y101.09 E8.62241
G1 X100.188 Y100.859 E8.63279
