;FLAVOR:Marlin
;TIME:1972
;Filament used: 0.639169m
;Layer height: 0.2
;MINX:94.174
;MINY:94.178
;MINZ:0.2
;MAXX:125.831
;MAXY:125.82
;MAXZ:35.4
;Generated with Creality Slicer 4.8.2-191
M140 S60
M105
M190 S60
M104 S200
M105
M109 S200
M82 ;absolute extrusion mode

G28 ;Home

G92 E0 ;Reset Extruder
G1 Z2.0 F3000 ;Move Z Axis up
G1 X10.1 Y20 Z0.28 F5000.0 ;Move to start position
G1 X10.1 Y200.0 Z0.28 F1500.0 E15 ;Draw the first line
G1 X10.4 Y200.0 Z0.28 F5000.0 ;Move to side a little
G1 X10.4 Y20 Z0.28 F1500.0 E30 ;Draw the second line
G92 E0 ;Reset Extruder
G1 Z2.0 F3000 ;Move Z Axis up

G92 E0
G92 E0
G1 F2400 E-0.8
;LAYER_COUNT:177
;LAYER:0
M107
M204 S2000
G0 F7500 X98.812 Y98.852 Z0.2
M204 S500
;TYPE:SKIRT
G1 F2400 E0
G1 F1500 X98.914 Y98.75 E0.0048
G1 X99.233 Y98.443 E0.01952
G1 X99.388 Y98.3 E0.02654
G1 X100.1 Y97.697 E0.05757
G1 X100.628 Y97.287 E0.0798
G1 X101.385 Y96.749 E0.11069
G1 X101.519 Y96.662 E0.11601
G1 X101.85 Y96.456 E0.12897
G1 X102.03 Y96.348 E0.13596
G1 X102.555 Y96.052 E0.156
G1 X102.771 Y95.938 E0.16412
G1 X103.314 Y95.67 E0.18427
G1 X103.621 Y95.529 E0.1955
G1 X104.075 Y95.333 E0.21195
G1 X104.245 Y95.264 E0.21805
G1 X104.916 Y95.016 E0.24184
G1 X105.169 Y94.932 E0.25071
G1 X105.526 Y94.82 E0.26315
G1 X105.638 Y94.787 E0.26704
G1 X106.345 Y94.604 E0.29133
G1 X106.774 Y94.508 E0.30595
G1 X107.32 Y94.4 E0.32446
G1 X108.045 Y94.296 E0.34882
G1 X108.39 Y94.258 E0.36037
G1 X108.798 Y94.221 E0.37399
G1 X109.046 Y94.203 E0.38226
G1 X110.154 Y94.178 E0.41912
G1 X110.683 Y94.193 E0.43673
G1 X111.435 Y94.241 E0.46179
G1 X111.579 Y94.255 E0.4666
G1 X111.996 Y94.303 E0.48056
G1 X112.342 Y94.35 E0.49217
G1 X112.919 Y94.444 E0.51162
G1 X113.066 Y94.472 E0.5166
G1 X113.693 Y94.611 E0.53796
G1 X113.979 Y94.683 E0.54777
G1 X115.092 Y95.027 E0.58651
G1 X115.728 Y95.261 E0.60905
G1 X116.823 Y95.732 E0.6487
G1 X116.97 Y95.805 E0.65416
G1 X117.605 Y96.147 E0.67815
G1 X117.925 Y96.333 E0.69046
G1 X118.285 Y96.551 E0.70445
G1 X118.618 Y96.762 E0.71757
G1 X119.498 Y97.382 E0.75337
G1 X119.917 Y97.709 E0.77105
G1 X120.624 Y98.311 E0.80193
G1 X120.814 Y98.487 E0.81055
G1 X121.09 Y98.752 E0.82327
G1 X121.236 Y98.897 E0.83012
G1 X121.737 Y99.429 E0.85442
G1 X121.997 Y99.724 E0.8675
G1 X122.37 Y100.169 E0.88681
G1 X122.465 Y100.289 E0.8919
G1 X122.749 Y100.665 E0.90758
G1 X123.039 Y101.07 E0.92414
G1 X123.126 Y101.196 E0.92924
G1 X123.477 Y101.737 E0.95068
G1 X123.613 Y101.961 E0.9594
G1 X123.877 Y102.421 E0.97704
G1 X123.959 Y102.572 E0.98276
G1 X124.288 Y103.23 E1.00722
G1 X124.412 Y103.5 E1.01711
G1 X124.676 Y104.126 E1.0397
G1 X124.836 Y104.54 E1.05447
G1 X124.994 Y104.974 E1.06983
G1 X125.075 Y105.213 E1.07822
G1 X125.257 Y105.805 E1.09882
G1 X125.366 Y106.218 E1.11303
G1 X125.448 Y106.557 E1.12463
G1 X125.656 Y107.663 E1.16206
G1 X125.708 Y108.046 E1.17491
G1 X125.773 Y108.646 E1.19499
G1 X125.786 Y108.808 E1.20039
G1 X125.811 Y109.227 E1.21435
G1 X125.822 Y109.489 E1.22307
G1 X125.831 Y110.095 E1.24323
G1 X125.828 Y110.322 E1.25078
G1 X125.806 Y110.885 E1.26952
G1 X125.792 Y111.102 E1.27675
G1 X125.748 Y111.603 E1.29348
G1 X125.723 Y111.829 E1.30104
G1 X125.56 Y112.855 E1.3356
G1 X125.439 Y113.438 E1.3554
G1 X125.2 Y114.379 E1.38769
G1 X125.105 Y114.694 E1.39864
G1 X124.905 Y115.296 E1.41973
G1 X124.856 Y115.43 E1.42448
G1 X124.566 Y116.143 E1.45008
G1 X124.32 Y116.693 E1.47012
G1 X123.779 Y117.747 E1.50953
G1 X123.657 Y117.956 E1.51757
G1 X123.396 Y118.381 E1.53416
G1 X123.164 Y118.74 E1.54838
G1 X122.65 Y119.469 E1.57805
G1 X122.488 Y119.68 E1.58689
G1 X122.166 Y120.079 E1.60395
G1 X122.03 Y120.24 E1.61096
G1 X121.405 Y120.92 E1.64168
G1 X120.95 Y121.375 E1.66308
G1 X120.433 Y121.86 E1.68666
G1 X120.334 Y121.947 E1.69104
G1 X119.853 Y122.346 E1.71182
G1 X119.563 Y122.573 E1.72407
G1 X118.729 Y123.166 E1.75811
G1 X118.192 Y123.511 E1.77934
G1 X117.364 Y123.993 E1.8112
G1 X116.991 Y124.183 E1.82513
G1 X116.743 Y124.304 E1.83431
G1 X116.283 Y124.516 E1.85115
G1 X115.847 Y124.697 E1.86685
G1 X115.571 Y124.805 E1.87671
G1 X114.935 Y125.031 E1.89916
G1 X114.699 Y125.107 E1.90741
G1 X114.046 Y125.296 E1.93002
G1 X113.701 Y125.384 E1.94186
G1 X113.034 Y125.532 E1.96458
G1 X112.776 Y125.581 E1.97332
G1 X112.188 Y125.676 E1.99313
G1 X112.121 Y125.685 E1.99538
G1 X111.507 Y125.75 E2.01591
G1 X110.965 Y125.792 E2.03399
G1 X109.79 Y125.82 E2.07309
G1 X109.35 Y125.807 E2.08773
G1 X108.617 Y125.761 E2.11215
G1 X108.348 Y125.735 E2.12114
G1 X107.532 Y125.625 E2.14853
G1 X106.994 Y125.532 E2.16669
G1 X105.833 Y125.266 E2.2063
G1 X105.509 Y125.173 E2.21751
G1 X104.678 Y124.898 E2.24663
G1 X104.337 Y124.77 E2.25874
G1 X103.672 Y124.495 E2.28268
G1 X103.301 Y124.322 E2.29629
G1 X102.949 Y124.15 E2.30932
G1 X102.28 Y123.794 E2.33453
G1 X102.053 Y123.663 E2.34324
G1 X101.658 Y123.424 E2.3586
G1 X101.472 Y123.306 E2.36593
G1 X100.912 Y122.927 E2.38842
G1 X100.698 Y122.772 E2.39721
G1 X99.933 Y122.164 E2.42971
G1 X99.412 Y121.711 E2.45267
G1 X98.809 Y121.145 E2.48018
G1 X98.63 Y120.964 E2.48864
G1 X98.124 Y120.417 E2.51343
G1 X97.922 Y120.183 E2.52371
G1 X97.544 Y119.72 E2.54359
G1 X97.398 Y119.531 E2.55153
G1 X96.823 Y118.713 E2.58479
G1 X96.443 Y118.116 E2.60832
G1 X95.842 Y117.042 E2.64926
G1 X95.707 Y116.766 E2.65948
G1 X95.336 Y115.921 E2.69017
G1 X95.145 Y115.43 E2.7077
G1 X94.744 Y114.181 E2.75133
G1 X94.6 Y113.621 E2.77056
G1 X94.39 Y112.615 E2.80474
G1 X94.345 Y112.333 E2.81424
G1 X94.238 Y111.409 E2.84517
G1 X94.199 Y110.88 E2.86282
G1 X94.174 Y109.742 E2.90068
G1 X94.183 Y109.441 E2.91069
G1 X94.23 Y108.697 E2.93549
G1 X94.265 Y108.34 E2.94742
G1 X94.372 Y107.551 E2.9739
G1 X94.44 Y107.155 E2.98726
G1 X94.601 Y106.385 E3.01343
G1 X94.706 Y105.959 E3.02802
G1 X94.865 Y105.381 E3.04796
G1 X94.883 Y105.322 E3.05001
G1 X95.071 Y104.759 E3.06975
G1 X95.159 Y104.518 E3.07829
G1 X95.354 Y104.022 E3.09601
G1 X95.418 Y103.87 E3.1015
G1 X95.67 Y103.315 E3.12177
G1 X95.853 Y102.94 E3.13565
G1 X96.204 Y102.279 E3.16054
G1 X96.311 Y102.093 E3.16768
G1 X96.56 Y101.682 E3.18366
G1 X96.68 Y101.493 E3.19111
G1 X97.039 Y100.962 E3.21243
G1 X97.219 Y100.712 E3.22267
G1 X97.857 Y99.908 E3.25681
G1 X98.301 Y99.399 E3.27927
G1 X98.812 Y98.852 E3.30417
M204 S2000
G0 F7500 X99.095 Y99.135
M204 S500
G1 F1500 X99.197 Y99.033 E3.30897
G1 X99.504 Y98.737 E3.32315
G1 X99.659 Y98.594 E3.33017
G1 X100.346 Y98.013 E3.36009
G1 X100.874 Y97.603 E3.38233
G1 X101.603 Y97.084 E3.41209
G1 X101.737 Y96.997 E3.4174
G1 X102.055 Y96.799 E3.42986
G1 X102.235 Y96.691 E3.43685
G1 X102.741 Y96.406 E3.45616
G1 X102.957 Y96.292 E3.46428
G1 X103.481 Y96.033 E3.48373
G1 X103.788 Y95.892 E3.49496
G1 X104.226 Y95.703 E3.51083
G1 X104.396 Y95.634 E3.51693
G1 X105.042 Y95.396 E3.53983
G1 X105.295 Y95.312 E3.54869
G1 X105.639 Y95.204 E3.56069
G1 X105.751 Y95.171 E3.56457
G1 X106.432 Y94.995 E3.58796
G1 X106.861 Y94.899 E3.60259
G1 X107.318 Y94.807 E3.61809
G1 X107.391 Y94.794 E3.62056
G1 X108.088 Y94.694 E3.64398
G1 X108.433 Y94.656 E3.65552
G1 X108.827 Y94.62 E3.66868
G1 X109.075 Y94.602 E3.67695
G1 X110.142 Y94.578 E3.71245
G1 X110.671 Y94.593 E3.73005
G1 X111.397 Y94.639 E3.75424
G1 X111.541 Y94.653 E3.75906
G1 X111.942 Y94.699 E3.77248
G1 X112.288 Y94.746 E3.7841
G1 X112.844 Y94.837 E3.80283
G1 X112.991 Y94.865 E3.80781
G1 X113.596 Y94.999 E3.82842
G1 X113.882 Y95.071 E3.83823
G1 X114.954 Y95.402 E3.87555
G1 X115.59 Y95.636 E3.89809
G1 X116.645 Y96.09 E3.93629
G1 X116.792 Y96.163 E3.94175
G1 X117.404 Y96.493 E3.96487
G1 X117.724 Y96.679 E3.97718
G1 X118.07 Y96.889 E3.99064
G1 X118.403 Y97.1 E4.00376
G1 X119.252 Y97.698 E4.0383
G1 X119.671 Y98.025 E4.05597
G1 X120.352 Y98.605 E4.08572
G1 X120.542 Y98.781 E4.09434
G1 X120.809 Y99.036 E4.10662
G1 X120.955 Y99.181 E4.11346
G1 X121.437 Y99.693 E4.13685
G1 X121.697 Y99.988 E4.14993
G1 X122.056 Y100.418 E4.16856
G1 X122.151 Y100.538 E4.17365
G1 X122.425 Y100.9 E4.18875
G1 X122.71 Y101.297 E4.20501
G1 X122.797 Y101.423 E4.2101
G1 X123.135 Y101.945 E4.23078
G1 X123.271 Y102.169 E4.2395
G1 X123.525 Y102.611 E4.25645
G1 X123.607 Y102.762 E4.26217
G1 X123.925 Y103.397 E4.28579
G1 X124.049 Y103.667 E4.29567
G1 X124.303 Y104.27 E4.31743
G1 X124.463 Y104.684 E4.3322
G1 X124.615 Y105.103 E4.34702
G1 X124.696 Y105.342 E4.35541
G1 X124.856 Y105.854 E4.37325
G1 X124.977 Y106.312 E4.38901
G1 X125.059 Y106.651 E4.40061
G1 X125.26 Y107.717 E4.43669
G1 X125.312 Y108.1 E4.44955
G1 X125.374 Y108.678 E4.46888
G1 X125.387 Y108.84 E4.47429
G1 X125.412 Y109.243 E4.48772
G1 X125.423 Y109.505 E4.49644
G1 X125.431 Y110.09 E4.5159
G1 X125.428 Y110.317 E4.52345
G1 X125.407 Y110.859 E4.54149
G1 X125.393 Y111.076 E4.54872
G1 X125.351 Y111.559 E4.56485
G1 X125.326 Y111.785 E4.57241
G1 X125.169 Y112.774 E4.60571
G1 X125.048 Y113.357 E4.62552
G1 X124.818 Y114.264 E4.65664
G1 X124.723 Y114.579 E4.66758
G1 X124.529 Y115.158 E4.68789
G1 X124.48 Y115.292 E4.69264
G1 X124.201 Y115.98 E4.71733
G1 X123.955 Y116.53 E4.73737
G1 X123.433 Y117.546 E4.77536
G1 X123.311 Y117.755 E4.78341
G1 X123.06 Y118.164 E4.79937
G1 X122.828 Y118.523 E4.81359
G1 X122.333 Y119.225 E4.84216
G1 X122.171 Y119.436 E4.85101
G1 X121.861 Y119.821 E4.86745
G1 X121.725 Y119.982 E4.87446
G1 X121.122 Y120.637 E4.90407
G1 X120.667 Y121.092 E4.92547
G1 X120.169 Y121.559 E4.94818
G1 X120.07 Y121.646 E4.95256
G1 X119.607 Y122.031 E4.97259
G1 X119.317 Y122.258 E4.98484
G1 X118.513 Y122.829 E5.01764
G1 X117.976 Y123.174 E5.03886
G1 X117.178 Y123.639 E5.06958
G1 X116.816 Y123.824 E5.08311
G1 X116.568 Y123.945 E5.09228
G1 X116.125 Y124.148 E5.10849
G1 X115.702 Y124.324 E5.12373
G1 X115.426 Y124.432 E5.13359
G1 X114.812 Y124.651 E5.15527
G1 X114.576 Y124.727 E5.16351
G1 X113.947 Y124.908 E5.18528
G1 X113.602 Y124.996 E5.19713
G1 X112.96 Y125.139 E5.219
G1 X112.702 Y125.188 E5.22774
G1 X112.135 Y125.28 E5.24684
G1 X112.068 Y125.289 E5.24909
G1 X111.476 Y125.351 E5.26889
G1 X110.934 Y125.393 E5.28697
G1 X109.802 Y125.42 E5.32463
G1 X109.362 Y125.407 E5.33927
G1 X108.655 Y125.363 E5.36283
G1 X108.386 Y125.337 E5.37182
G1 X107.6 Y125.231 E5.3982
G1 X107.062 Y125.138 E5.41636
G1 X105.943 Y124.882 E5.45454
G1 X105.619 Y124.789 E5.46575
G1 X104.819 Y124.524 E5.49378
G1 X104.478 Y124.396 E5.50589
G1 X103.837 Y124.131 E5.52896
G1 X103.476 Y123.963 E5.54221
G1 X103.124 Y123.791 E5.55524
G1 X102.48 Y123.448 E5.57951
G1 X102.253 Y123.317 E5.58822
G1 X101.873 Y123.087 E5.603
G1 X101.687 Y122.969 E5.61032
G1 X101.147 Y122.603 E5.63202
G1 X100.933 Y122.448 E5.64081
G1 X100.196 Y121.862 E5.67213
G1 X99.675 Y121.409 E5.69509
G1 X99.093 Y120.864 E5.72161
G1 X98.914 Y120.683 E5.73008
G1 X98.427 Y120.156 E5.75394
G1 X98.225 Y119.922 E5.76422
G1 X97.86 Y119.475 E5.78342
G1 X97.714 Y119.286 E5.79136
G1 X97.161 Y118.498 E5.82338
G1 X96.781 Y117.901 E5.84692
G1 X96.201 Y116.866 E5.88638
G1 X96.066 Y116.59 E5.8966
G1 X95.709 Y115.776 E5.92616
G1 X95.518 Y115.285 E5.94368
G1 X95.131 Y114.082 E5.98571
G1 X94.987 Y113.522 E6.00495
G1 X94.785 Y112.552 E6.0379
G1 X94.74 Y112.27 E6.0474
G1 X94.637 Y111.379 E6.07723
G1 X94.598 Y110.85 E6.09487
G1 X94.574 Y109.754 E6.13133
G1 X94.583 Y109.453 E6.14135
G1 X94.629 Y108.736 E6.16525
G1 X94.664 Y108.379 E6.17718
G1 X94.766 Y107.619 E6.20268
G1 X94.834 Y107.223 E6.21605
G1 X94.989 Y106.48 E6.24129
G1 X95.094 Y106.054 E6.25588
G1 X95.247 Y105.498 E6.27506
G1 X95.265 Y105.439 E6.27711
G1 X95.447 Y104.896 E6.29616
G1 X95.535 Y104.655 E6.3047
G1 X95.723 Y104.178 E6.32175
G1 X95.787 Y104.026 E6.32723
G1 X96.03 Y103.49 E6.34681
G1 X96.213 Y103.115 E6.36069
G1 X96.551 Y102.478 E6.38467
G1 X96.658 Y102.292 E6.39181
G1 X96.897 Y101.896 E6.40719
G1 X97.017 Y101.707 E6.41464
G1 X97.364 Y101.195 E6.43521
G1 X97.544 Y100.945 E6.44546
G1 X98.158 Y100.171 E6.47832
G1 X98.602 Y99.662 E6.50078
G1 X99.095 Y99.135 E6.52478
M204 S2000
G0 F7500 X99.378 Y99.418
M204 S500
G1 F1500 X99.48 Y99.316 E6.52958
G1 X99.776 Y99.031 E6.54325
G1 X99.931 Y98.888 E6.55026
G1 X100.591 Y98.329 E6.57903
G1 X101.119 Y97.919 E6.60126
G1 X101.821 Y97.42 E6.62991
G1 X101.955 Y97.333 E6.63522
G1 X102.261 Y97.142 E6.64722
G1 X102.441 Y97.034 E6.6542
G1 X102.928 Y96.759 E6.6728
G1 X103.144 Y96.645 E6.68093
G1 X103.648 Y96.397 E6.69961
G1 X103.955 Y96.256 E6.71085
G1 X104.376 Y96.074 E6.7261
G1 X104.546 Y96.005 E6.7322
G1 X105.168 Y95.776 E6.75425
G1 X105.421 Y95.692 E6.76312
G1 X105.752 Y95.588 E6.77466
G1 X105.864 Y95.555 E6.77854
G1 X106.52 Y95.385 E6.80108
G1 X106.949 Y95.289 E6.8157
G1 X107.461 Y95.188 E6.83306
G1 X108.132 Y95.091 E6.85561
G1 X108.477 Y95.053 E6.86715
G1 X108.856 Y95.019 E6.87981
G1 X109.104 Y95.001 E6.88808
G1 X110.131 Y94.978 E6.92224
G1 X110.66 Y94.993 E6.93985
G1 X111.358 Y95.037 E6.96311
G1 X111.502 Y95.051 E6.96792
G1 X111.888 Y95.096 E6.98084
G1 X112.234 Y95.143 E6.99246
G1 X112.77 Y95.23 E7.01052
G1 X112.917 Y95.258 E7.0155
G1 X113.498 Y95.387 E7.03529
G1 X113.784 Y95.459 E7.0451
G1 X114.816 Y95.777 E7.08102
G1 X115.452 Y96.011 E7.10356
G1 X116.467 Y96.448 E7.14031
G1 X116.614 Y96.521 E7.14577
G1 X117.203 Y96.838 E7.16802
G1 X117.523 Y97.024 E7.18033
G1 X117.856 Y97.227 E7.1933
G1 X118.189 Y97.438 E7.20641
G1 X119.005 Y98.013 E7.23961
G1 X119.424 Y98.34 E7.25729
G1 X120.081 Y98.898 E7.28596
G1 X120.271 Y99.074 E7.29457
G1 X120.527 Y99.32 E7.30638
G1 X120.673 Y99.465 E7.31323
G1 X121.137 Y99.958 E7.33574
G1 X121.397 Y100.253 E7.34882
G1 X121.742 Y100.666 E7.36672
G1 X121.837 Y100.786 E7.37181
G1 X122.101 Y101.135 E7.38637
G1 X122.381 Y101.524 E7.40231
G1 X122.468 Y101.65 E7.4074
G1 X122.793 Y102.152 E7.42729
G1 X122.929 Y102.376 E7.43601
G1 X123.174 Y102.802 E7.45235
G1 X123.256 Y102.953 E7.45807
G1 X123.561 Y103.564 E7.48078
G1 X123.685 Y103.834 E7.49066
G1 X123.93 Y104.414 E7.5116
G1 X124.09 Y104.828 E7.52637
G1 X124.236 Y105.231 E7.54062
G1 X124.317 Y105.47 E7.54902
G1 X124.471 Y105.963 E7.56619
G1 X124.588 Y106.406 E7.58143
G1 X124.67 Y106.745 E7.59303
G1 X124.863 Y107.771 E7.62776
G1 X124.915 Y108.154 E7.64061
G1 X124.975 Y108.71 E7.65921
G1 X124.988 Y108.872 E7.66462
G1 X125.012 Y109.26 E7.67755
G1 X125.023 Y109.522 E7.68627
G1 X125.031 Y110.085 E7.705
G1 X125.028 Y110.312 E7.71255
G1 X125.008 Y110.834 E7.72992
G1 X124.994 Y111.051 E7.73716
G1 X124.953 Y111.515 E7.75265
G1 X124.928 Y111.741 E7.76021
G1 X124.777 Y112.693 E7.79227
G1 X124.656 Y113.276 E7.81207
G1 X124.435 Y114.148 E7.84199
G1 X124.34 Y114.463 E7.85294
G1 X124.154 Y115.021 E7.8725
G1 X124.105 Y115.155 E7.87725
G1 X123.836 Y115.817 E7.90101
G1 X123.59 Y116.367 E7.92105
G1 X123.088 Y117.344 E7.95759
G1 X122.966 Y117.553 E7.96563
G1 X122.724 Y117.947 E7.98101
G1 X122.492 Y118.306 E7.99523
G1 X122.015 Y118.982 E8.02275
G1 X121.853 Y119.193 E8.0316
G1 X121.555 Y119.563 E8.0474
G1 X121.419 Y119.724 E8.05441
G1 X120.839 Y120.354 E8.08289
G1 X120.384 Y120.809 E8.10429
G1 X119.905 Y121.259 E8.12615
G1 X119.806 Y121.346 E8.13053
G1 X119.36 Y121.716 E8.14981
G1 X119.07 Y121.943 E8.16206
G1 X118.296 Y122.493 E8.19364
G1 X117.759 Y122.838 E8.21487
G1 X116.992 Y123.285 E8.24439
G1 X116.641 Y123.464 E8.2575
G1 X116.393 Y123.585 E8.26668
G1 X115.966 Y123.781 E8.2823
G1 X115.556 Y123.952 E8.29708
G1 X115.28 Y124.06 E8.30693
G1 X114.69 Y124.27 E8.32776
G1 X114.454 Y124.346 E8.33601
G1 X113.848 Y124.521 E8.35699
G1 X113.503 Y124.609 E8.36883
G1 X112.885 Y124.746 E8.38989
G1 X112.627 Y124.795 E8.39862
G1 X112.082 Y124.883 E8.41698
G1 X112.015 Y124.892 E8.41923
G1 X111.445 Y124.953 E8.4383
G1 X110.903 Y124.995 E8.45638
G1 X109.814 Y125.021 E8.49261
G1 X109.374 Y125.008 E8.50725
G1 X108.694 Y124.965 E8.52991
G1 X108.425 Y124.939 E8.5389
G1 X107.669 Y124.837 E8.56427
G1 X107.131 Y124.744 E8.58243
