;FLAVOR:Marlin
;TIME:6343
;Filament used: 3.63744m
;Layer height: 0.2
;MINX:60.081
;MINY:60.075
;MINZ:0.2
;MAXX:159.91
;MAXY:159.909
;MAXZ:9.4
;Generated with Creality Slicer 4.8.2-191
M140 S60
M105
M190 S60
M104 S200
M105
M109 S200
M82 ;absolute extrusion mode

G28 ;Home

G92 E0 ;Reset Extruder
G1 Z2.0 F3000 ;Move Z Axis up
G1 X10.1 Y20 Z0.28 F5000.0 ;Move to start position
G1 X10.1 Y200.0 Z0.28 F1500.0 E15 ;Draw the first line
G1 X10.4 Y200.0 Z0.28 F5000.0 ;Move to side a little
G1 X10.4 Y20 Z0.28 F1500.0 E30 ;Draw the second line
G92 E0 ;Reset Extruder
G1 Z2.0 F3000 ;Move Z Axis up

G92 E0
G92 E0
G1 F2400 E-0.8
;LAYER_COUNT:48
;LAYER:0
M107
M204 S2000
G0 F7500 X70.822 Y78.614 Z0.2
M204 S500
;TYPE:SKIRT
G1 F2400 E0
G1 F1500 X71.237 Y78.259 E0.01816
G1 X71.349 Y78.168 E0.02296
G1 X71.832 Y77.797 E0.04322
G1 X72.126 Y77.584 E0.0553
G1 X72.9 Y77.072 E0.08616
G1 X73.366 Y76.791 E0.10426
G1 X73.581 Y76.665 E0.11255
G1 X74.074 Y76.383 E0.13144
G1 X74.802 Y75.957 E0.15949
G1 X74.91 Y75.897 E0.1636
G1 X77.72 Y74.272 E0.27157
G1 X78.554 Y73.794 E0.30354
G1 X78.801 Y73.649 E0.31306
G1 X80.691 Y72.559 E0.38563
G1 X82.492 Y71.552 E0.45426
G1 X84.692 Y70.281 E0.53877
G1 X86.821 Y68.969 E0.62194
G1 X88.957 Y67.569 E0.70689
G1 X91.007 Y66.139 E0.79002
G1 X93.057 Y64.624 E0.8748
G1 X94.289 Y63.656 E0.92691
G1 X95.092 Y63.038 E0.96062
G1 X95.511 Y62.731 E0.97789
G1 X95.742 Y62.57 E0.98726
G1 X96.595 Y62.032 E1.0208
G1 X96.917 Y61.853 E1.03305
G1 X97.246 Y61.678 E1.04545
G1 X97.94 Y61.34 E1.07112
G1 X98.158 Y61.243 E1.07906
G1 X99.151 Y60.857 E1.11449
G1 X99.346 Y60.792 E1.12133
G1 X99.656 Y60.694 E1.13214
G1 X99.902 Y60.62 E1.14069
G1 X101.154 Y60.322 E1.18349
G1 X101.493 Y60.262 E1.19494
G1 X102.861 Y60.108 E1.24073
G1 X103.221 Y60.09 E1.25272
G1 X103.668 Y60.076 E1.26759
G1 X103.776 Y60.075 E1.27119
G1 X104.713 Y60.107 E1.30237
G1 X105.631 Y60.216 E1.33312
G1 X106.199 Y60.309 E1.35226
G1 X106.331 Y60.333 E1.35672
G1 X107.01 Y60.479 E1.37982
G1 X107.978 Y60.719 E1.41299
G1 X108.255 Y60.792 E1.42252
G1 X108.868 Y60.961 E1.44367
G1 X110.203 Y61.32 E1.48965
G1 X111.144 Y61.566 E1.522
G1 X112.181 Y61.846 E1.55772
G1 X112.444 Y61.91 E1.56673
G1 X113.663 Y62.241 E1.60874
G1 X115.792 Y62.812 E1.68205
G1 X117.681 Y63.347 E1.74735
G1 X120.131 Y64.004 E1.83172
G1 X122.629 Y64.599 E1.91713
G1 X125.06 Y65.103 E1.9997
G1 X127.519 Y65.543 E2.08279
G1 X130.07 Y65.925 E2.16858
G1 X131.729 Y66.134 E2.22419
G1 X132.225 Y66.192 E2.2408
G1 X132.523 Y66.232 E2.2508
G1 X133.117 Y66.318 E2.27077
G1 X134.039 Y66.491 E2.30197
G1 X134.521 Y66.615 E2.31852
G1 X134.752 Y66.68 E2.3265
G1 X135.239 Y66.83 E2.34345
G1 X135.501 Y66.917 E2.35263
G1 X136.377 Y67.25 E2.3838
G1 X136.981 Y67.531 E2.40596
G1 X137.261 Y67.672 E2.41639
G1 X137.812 Y67.97 E2.43722
G1 X138.116 Y68.146 E2.4489
G1 X138.307 Y68.259 E2.45629
G1 X139.093 Y68.77 E2.48747
G1 X139.727 Y69.258 E2.51408
G1 X139.967 Y69.457 E2.52445
G1 X140.301 Y69.745 E2.53912
G1 X140.529 Y69.95 E2.54931
G1 X141.199 Y70.606 E2.5805
G1 X141.857 Y71.377 E2.61421
G1 X142.011 Y71.575 E2.62256
G1 X142.184 Y71.803 E2.63208
G1 X142.282 Y71.936 E2.63757
G1 X142.607 Y72.402 E2.65647
G1 X142.737 Y72.599 E2.66432
G1 X142.901 Y72.855 E2.67443
G1 X142.996 Y73.008 E2.68042
G1 X143.145 Y73.255 E2.69001
G1 X143.663 Y74.142 E2.72418
G1 X144.18 Y75.043 E2.75873
G1 X147.422 Y80.658 E2.97438
G1 X148.433 Y82.466 E3.04327
G1 X149.701 Y84.66 E3.12756
G1 X151.023 Y86.806 E3.21139
G1 X152.404 Y88.912 E3.29515
G1 X153.845 Y90.978 E3.37893
G1 X155.344 Y93.003 E3.46273
G1 X155.97 Y93.8 E3.49644
G1 X156.827 Y94.915 E3.54321
G1 X157.049 Y95.213 E3.55557
G1 X157.362 Y95.65 E3.57345
G1 X157.875 Y96.435 E3.60464
G1 X158.15 Y96.925 E3.62333
G1 X158.305 Y97.219 E3.63438
G1 X158.527 Y97.661 E3.65083
G1 X158.933 Y98.585 E3.6844
G1 X159.027 Y98.829 E3.6931
G1 X159.249 Y99.461 E3.71538
G1 X159.319 Y99.682 E3.72309
G1 X159.535 Y100.465 E3.7501
G1 X159.586 Y100.68 E3.75745
G1 X159.819 Y102.033 E3.80312
G1 X159.828 Y102.116 E3.80589
G1 X159.876 Y102.702 E3.82545
G1 X159.9 Y103.141 E3.84007
G1 X159.91 Y104.1 E3.87197
G1 X159.902 Y104.345 E3.88012
G1 X159.807 Y105.476 E3.91787
G1 X159.772 Y105.732 E3.92647
G1 X159.611 Y106.628 E3.95674
G1 X159.541 Y106.943 E3.96748
G1 X159.47 Y107.245 E3.9778
G1 X159.31 Y107.88 E3.99958
G1 X159 Y109.043 E4.03961
G1 X158.928 Y109.301 E4.04852
G1 X158.874 Y109.526 E4.05621
G1 X158.782 Y109.866 E4.06793
G1 X158.738 Y110.005 E4.07278
G1 X158.108 Y112.358 E4.15379
G1 X158.088 Y112.449 E4.15689
G1 X157.794 Y113.529 E4.19412
G1 X157.244 Y115.587 E4.26497
G1 X156.663 Y117.639 E4.33591
G1 X155.994 Y120.135 E4.42185
G1 X155.399 Y122.633 E4.50726
G1 X154.893 Y125.07 E4.59005
G1 X154.452 Y127.538 E4.67343
G1 X154.073 Y130.064 E4.75839
G1 X153.835 Y131.969 E4.82224
G1 X153.816 Y132.139 E4.82793
G1 X153.78 Y132.424 E4.83748
G1 X153.732 Y132.764 E4.8489
G1 X153.675 Y133.126 E4.86109
G1 X153.621 Y133.434 E4.87149
G1 X153.338 Y134.642 E4.91276
G1 X153.257 Y134.917 E4.92229
G1 X153.158 Y135.234 E4.93334
G1 X153.081 Y135.469 E4.94157
G1 X152.562 Y136.767 E4.98806
G1 X152.446 Y137.011 E4.99705
G1 X152.259 Y137.387 E5.01101
G1 X152.18 Y137.538 E5.01668
G1 X152.02 Y137.832 E5.02781
G1 X151.921 Y138.008 E5.03453
G1 X151.76 Y138.286 E5.04522
G1 X151.686 Y138.409 E5.04999
G1 X151.168 Y139.191 E5.08119
G1 X150.818 Y139.649 E5.10036
G1 X150.625 Y139.888 E5.11058
G1 X149.795 Y140.806 E5.15174
G1 X149.64 Y140.959 E5.15898
G1 X148.672 Y141.808 E5.20181
G1 X148.491 Y141.949 E5.20944
G1 X148.097 Y142.242 E5.22577
G1 X147.601 Y142.594 E5.246
G1 X146.811 Y143.105 E5.27729
G1 X146.171 Y143.481 E5.30198
G1 X142.276 Y145.732 E5.45161
G1 X141.202 Y146.348 E5.49279
G1 X139.336 Y147.426 E5.56446
G1 X137.509 Y148.447 E5.63407
G1 X135.299 Y149.722 E5.71893
G1 X133.189 Y151.022 E5.80136
G1 X131.051 Y152.423 E5.88638
G1 X128.979 Y153.868 E5.9704
G1 X126.953 Y155.366 E6.0542
G1 X125.107 Y156.808 E6.13211
G1 X124.7 Y157.116 E6.14909
G1 X124.189 Y157.477 E6.1699
G1 X124.016 Y157.592 E6.17681
G1 X123.314 Y158.021 E6.20417
G1 X123.152 Y158.112 E6.21035
G1 X122.797 Y158.304 E6.22378
G1 X122.519 Y158.447 E6.23417
G1 X121.24 Y159.005 E6.28059
G1 X120.959 Y159.107 E6.29053
G1 X120.25 Y159.337 E6.31532
G1 X120.125 Y159.373 E6.31965
G1 X119.728 Y159.48 E6.33332
G1 X119.486 Y159.54 E6.34161
G1 X118.471 Y159.741 E6.37603
G1 X118.271 Y159.771 E6.38276
G1 X117.213 Y159.878 E6.41812
G1 X116.964 Y159.891 E6.42642
G1 X116.651 Y159.903 E6.43684
G1 X116.398 Y159.909 E6.44525
G1 X115.46 Y159.891 E6.47646
G1 X114.257 Y159.75 E6.51674
G1 X113.421 Y159.605 E6.54496
G1 X112.583 Y159.426 E6.57346
G1 X111.848 Y159.237 E6.5987
G1 X104.229 Y157.193 E6.86107
G1 X102.381 Y156.67 E6.92495
G1 X99.913 Y156.007 E7.00995
G1 X97.425 Y155.413 E7.09503
G1 X95.028 Y154.915 E7.17645
G1 X92.544 Y154.47 E7.26039
G1 X88.676 Y153.916 E7.39035
G1 X87.722 Y153.8 E7.42231
G1 X87.436 Y153.762 E7.43191
G1 X86.958 Y153.691 E7.44798
G1 X86.565 Y153.625 E7.46124
G1 X86.425 Y153.599 E7.46597
G1 X85.384 Y153.353 E7.50155
G1 X85.086 Y153.267 E7.51187
G1 X84.642 Y153.128 E7.52734
G1 X84.436 Y153.059 E7.53457
G1 X83.169 Y152.545 E7.58004
G1 X82.942 Y152.436 E7.58842
G1 X82.365 Y152.138 E7.61002
G1 X82.165 Y152.027 E7.61763
G1 X81.508 Y151.632 E7.64312
G1 X81.308 Y151.502 E7.65106
G1 X80.495 Y150.919 E7.68433
G1 X80.297 Y150.763 E7.69271
G1 X79.573 Y150.14 E7.72448
G1 X79.259 Y149.845 E7.73881
G1 X78.604 Y149.174 E7.77
G1 X77.973 Y148.404 E7.80311
G1 X77.753 Y148.109 E7.81535
G1 X77.37 Y147.561 E7.83759
G1 X77.237 Y147.358 E7.84566
G1 X76.991 Y146.964 E7.86111
G1 X76.515 Y146.166 E7.89201
G1 X75.601 Y144.581 E7.95287
G1 X75.043 Y143.62 E7.98983
G1 X74.559 Y142.772 E8.0223
G1 X73.799 Y141.453 E8.07294
G1 X73.571 Y141.065 E8.0879
G1 X72.557 Y139.305 E8.15546
G1 X71.546 Y137.497 E8.22436
G1 X70.273 Y135.294 E8.30898
G1 X68.945 Y133.14 E8.39315
G1 X67.578 Y131.055 E8.47607
G1 X66.13 Y128.979 E8.56026
G1 X64.62 Y126.937 E8.64473
G1 X63.509 Y125.51 E8.70488
G1 X63.252 Y125.186 E8.71863
G1 X63.096 Y124.985 E8.72709
G1 X62.959 Y124.804 E8.73464
G1 X62.687 Y124.428 E8.75008
G1 X62.527 Y124.197 E8.75943
G1 X61.939 Y123.248 E8.79656
G1 X61.757 Y122.913 E8.80924
G1 X61.653 Y122.714 E8.81671
G1 X61.355 Y122.097 E8.8395
G1 X61.24 Y121.839 E8.84889
G1 X60.851 Y120.84 E8.88455
G1 X60.807 Y120.708 E8.88918
G1 X60.712 Y120.406 E8.8997
G1 X60.639 Y120.164 E8.90811
G1 X60.466 Y119.522 E8.93023
G1 X60.412 Y119.294 E8.93802
G1 X60.235 Y118.373 E8.96921
G1 X60.174 Y117.889 E8.98544
G1 X60.155 Y117.705 E8.99159
G1 X60.116 Y117.214 E9.00797
G1 X60.1 Y116.939 E9.01713
G1 X60.086 Y116.622 E9.02769
G1 X60.081 Y116.451 E9.03338
G1 X60.093 Y115.513 E9.06458
G1 X60.188 Y114.565 E9.09627
G1 X60.242 Y114.189 E9.1089
G1 X60.295 Y113.852 E9.12025
G1 X60.325 Y113.681 E9.12602
G1 X60.453 Y113.06 E9.14711
G1 X60.565 Y112.597 E9.16295
G1 X60.657 Y112.245 E9.17506
G1 X61.907 Y107.586 E9.3355
G1 X62.81 Y104.216 E9.45154
G1 X63.334 Y102.368 E9.51542
G1 X64.001 Y99.884 E9.60097
G1 X64.594 Y97.399 E9.68594
G1 X65.097 Y94.977 E9.76822
G1 X65.536 Y92.527 E9.851
G1 X65.919 Y89.973 E9.9369
G1 X66.093 Y88.614 E9.98247
G1 X66.191 Y87.808 E10.00947
G1 X66.234 Y87.487 E10.02024
G1 X66.276 Y87.209 E10.02959
G1 X66.318 Y86.954 E10.03819
G1 X66.387 Y86.56 E10.05149
G1 X66.643 Y85.443 E10.08961
G1 X66.756 Y85.053 E10.10311
G1 X66.816 Y84.856 E10.10996
G1 X67.027 Y84.232 E10.13187
G1 X67.115 Y83.995 E10.14028
G1 X67.496 Y83.093 E10.17285
G1 X67.607 Y82.86 E10.18143
G1 X68.114 Y81.917 E10.21704
G1 X68.232 Y81.721 E10.22465
G1 X68.45 Y81.373 E10.23831
G1 X68.988 Y80.605 E10.2695
G1 X69.375 Y80.127 E10.28995
G1 X69.508 Y79.972 E10.29675
G1 X69.833 Y79.609 E10.31295
G1 X70.151 Y79.27 E10.32841
G1 X70.822 Y78.614 E10.35962
M204 S2000
G0 F7500 X71.101 Y78.9
M204 S500
G1 F1500 X71.49 Y78.569 E10.37661
G1 X71.602 Y78.478 E10.38141
G1 X72.067 Y78.121 E10.40091
G1 X72.361 Y77.908 E10.41298
G1 X73.106 Y77.415 E10.4427
G1 X73.572 Y77.134 E10.46079
G1 X73.779 Y77.012 E10.46879
G1 X74.31 Y76.708 E10.48914
G1 X75.004 Y76.302 E10.51588
G1 X75.124 Y76.236 E10.52043
G1 X77.919 Y74.619 E10.62783
G1 X78.737 Y74.15 E10.65919
G1 X80.757 Y72.982 E10.7368
G1 X80.886 Y72.908 E10.74175
G1 X82.681 Y71.904 E10.81016
G1 X84.897 Y70.625 E10.89526
G1 X87.071 Y69.285 E10.98019
G1 X89.16 Y67.915 E11.06328
G1 X91.252 Y66.456 E11.14811
G1 X93.296 Y64.944 E11.23268
G1 X94.533 Y63.973 E11.28498
G1 X95.336 Y63.355 E11.31868
G1 X95.74 Y63.059 E11.33534
G1 X95.971 Y62.898 E11.34471
G1 X96.792 Y62.38 E11.37699
G1 X97.105 Y62.207 E11.38889
G1 X97.434 Y62.032 E11.40128
G1 X98.103 Y61.705 E11.42605
G1 X98.321 Y61.608 E11.43399
G1 X99.278 Y61.237 E11.46812
G1 X99.473 Y61.172 E11.47496
G1 X99.772 Y61.077 E11.48539
G1 X100.018 Y61.003 E11.49394
G1 X101.224 Y60.716 E11.53517
G1 X101.563 Y60.656 E11.54662
G1 X102.881 Y60.507 E11.59074
G1 X103.241 Y60.489 E11.60273
G1 X103.672 Y60.476 E11.61707
G1 X103.78 Y60.475 E11.62066
G1 X104.7 Y60.507 E11.65128
G1 X105.568 Y60.611 E11.68035
G1 X106.127 Y60.703 E11.6992
G1 X106.259 Y60.727 E11.70366
G1 X106.914 Y60.868 E11.72594
G1 X107.882 Y61.108 E11.75911
G1 X108.148 Y61.177 E11.76825
G1 X108.761 Y61.346 E11.7894
G1 X110.127 Y61.713 E11.83645
G1 X111.04 Y61.952 E11.86784
G1 X112.218 Y62.27 E11.90842
G1 X112.34 Y62.296 E11.91257
G1 X113.525 Y62.618 E11.95341
G1 X115.683 Y63.197 E12.02773
G1 X117.549 Y63.726 E12.09223
G1 X120.04 Y64.393 E12.178
G1 X122.559 Y64.994 E12.26414
G1 X124.98 Y65.496 E12.34637
G1 X127.46 Y65.939 E12.43016
G1 X129.999 Y66.32 E12.51556
G1 X131.747 Y66.54 E12.57415
G1 X132.178 Y66.59 E12.58859
G1 X132.466 Y66.627 E12.59824
G1 X133.06 Y66.713 E12.61821
G1 X133.964 Y66.885 E12.64881
G1 X134.412 Y67 E12.6642
G1 X134.643 Y67.065 E12.67218
G1 X135.112 Y67.209 E12.6885
G1 X135.374 Y67.296 E12.69768
G1 X136.235 Y67.624 E12.72832
G1 X136.801 Y67.889 E12.74911
G1 X137.081 Y68.03 E12.75954
G1 X137.612 Y68.316 E12.7796
G1 X137.912 Y68.49 E12.79113
G1 X138.103 Y68.603 E12.79851
G1 X138.875 Y69.106 E12.82916
G1 X139.472 Y69.566 E12.85422
G1 X139.712 Y69.765 E12.86459
G1 X140.033 Y70.043 E12.87872
G1 X140.261 Y70.248 E12.88892
G1 X140.918 Y70.892 E12.91951
G1 X141.541 Y71.622 E12.95143
G1 X141.695 Y71.82 E12.95978
G1 X141.862 Y72.04 E12.96896
G1 X141.96 Y72.173 E12.97446
G1 X142.273 Y72.623 E12.99269
G1 X142.403 Y72.82 E13.00054
G1 X142.561 Y73.066 E13.01027
G1 X142.656 Y73.219 E13.01626
G1 X142.799 Y73.457 E13.02549
G1 X143.316 Y74.34 E13.05952
G1 X143.78 Y75.153 E13.09066
G1 X143.93 Y75.409 E13.10053
G1 X147.001 Y80.726 E13.30475
G1 X148.05 Y82.601 E13.37621
G1 X149.357 Y84.865 E13.46316
G1 X150.687 Y87.023 E13.54747
G1 X152.069 Y89.13 E13.63128
G1 X153.528 Y91.223 E13.71613
G1 X155.02 Y93.239 E13.79955
G1 X155.653 Y94.043 E13.83359
G1 X156.51 Y95.158 E13.88036
G1 X156.724 Y95.446 E13.89229
G1 X157.037 Y95.883 E13.91017
G1 X157.54 Y96.654 E13.94079
G1 X157.796 Y97.112 E13.95824
G1 X157.951 Y97.406 E13.9693
G1 X158.075 Y97.649 E13.97837
G1 X158.169 Y97.839 E13.98542
G1 X158.559 Y98.728 E14.01771
G1 X158.653 Y98.972 E14.02641
G1 X158.867 Y99.582 E14.04791
G1 X158.937 Y99.803 E14.05562
G1 X159.146 Y100.557 E14.08164
G1 X159.197 Y100.772 E14.08899
G1 X159.421 Y102.076 E14.133
G1 X159.43 Y102.159 E14.13577
G1 X159.476 Y102.723 E14.15459
G1 X159.5 Y103.162 E14.16922
G1 X159.51 Y104.087 E14.19998
G1 X159.502 Y104.332 E14.20814
G1 X159.41 Y105.422 E14.24452
G1 X159.375 Y105.678 E14.25311
G1 X159.221 Y106.541 E14.28227
G1 X159.151 Y106.856 E14.293
G1 X159.082 Y107.147 E14.30295
G1 X158.885 Y107.924 E14.32961
G1 X158.614 Y108.936 E14.36446
G1 X158.516 Y109.29 E14.37667
G1 X158.488 Y109.422 E14.38116
G1 X158.396 Y109.762 E14.39288
G1 X158.349 Y109.911 E14.39807
G1 X157.883 Y111.653 E14.45805
G1 X157.737 Y112.193 E14.47665
G1 X157.702 Y112.344 E14.48181
G1 X157.408 Y113.424 E14.51904
G1 X156.815 Y115.636 E14.59521
G1 X156.285 Y117.508 E14.65992
G1 X155.605 Y120.044 E14.74725
G1 X155.005 Y122.557 E14.83318
G1 X154.502 Y124.983 E14.91558
G1 X154.056 Y127.48 E14.99995
G1 X153.678 Y129.995 E15.08454
G1 X153.451 Y131.815 E15.14554
G1 X153.419 Y132.094 E15.15488
G1 X153.384 Y132.368 E15.16407
G1 X153.336 Y132.708 E15.17549
G1 X153.281 Y133.057 E15.18724
G1 X153.227 Y133.365 E15.19764
G1 X152.954 Y134.529 E15.2374
G1 X152.873 Y134.804 E15.24694
G1 X152.778 Y135.11 E15.2576
G1 X152.701 Y135.345 E15.26582
G1 X152.201 Y136.595 E15.3106
G1 X152.085 Y136.839 E15.31958
G1 X151.904 Y137.202 E15.33308
G1 X151.825 Y137.353 E15.33874
G1 X151.672 Y137.636 E15.34944
G1 X151.573 Y137.812 E15.35616
G1 X151.417 Y138.08 E15.36647
G1 X151.343 Y138.203 E15.37125
G1 X150.834 Y138.97 E15.40187
G1 X150.507 Y139.398 E15.41978
G1 X150.314 Y139.637 E15.43
G1 X149.514 Y140.521 E15.46965
G1 X149.359 Y140.674 E15.4769
G1 X148.426 Y141.492 E15.51816
G1 X148.245 Y141.633 E15.5258
G1 X147.866 Y141.915 E15.54151
G1 X147.37 Y142.267 E15.56174
G1 X146.608 Y142.76 E15.59192
G1 X145.971 Y143.135 E15.61651
G1 X142.077 Y145.385 E15.76609
G1 X141.109 Y145.939 E15.80319
G1 X140.922 Y146.049 E15.8104
G1 X139.141 Y147.077 E15.8788
G1 X137.32 Y148.094 E15.94817
G1 X135.111 Y149.369 E16.033
G1 X132.925 Y150.716 E16.1184
G1 X130.851 Y152.075 E16.20087
G1 X128.758 Y153.534 E16.28573
G1 X126.709 Y155.05 E16.37051
G1 X124.861 Y156.493 E16.44849
G1 X124.46 Y156.796 E16.46521
G1 X123.968 Y157.144 E16.48525
G1 X123.795 Y157.259 E16.49216
G1 X123.118 Y157.673 E16.51855
G1 X122.956 Y157.764 E16.52473
G1 X122.614 Y157.948 E16.53765
G1 X122.336 Y158.091 E16.54805
G1 X121.104 Y158.629 E16.59276
G1 X120.823 Y158.731 E16.6027
G1 X120.14 Y158.953 E16.62659
G1 X120.015 Y158.989 E16.63092
